flaticon/pins-and-locations/pin-31.svg

<svg xmlns="http://www.w3.org/2000/svg" width="32" height="32" viewBox="0 0 24 24">
    <path d="M 18.398438 6.398438 C 18.398438 2.878906 15.519531 0 12 0 C 8.480469 0 5.601562 2.878906 5.601562 6.398438 C 5.601562 9.242188 7.480469 11.667969 10.058594 12.496094 L 10.800781 22.839844 C 10.839844 23.519531 11.359375 24 12 24 C 12.640625 24 13.160156 23.519531 13.199219 22.839844 L 13.984375 12.484375 C 16.539062 11.640625 18.398438 9.226562 18.398438 6.398438 Z M 12.398438 22.800781 C 12.398438 23.039062 12.238281 23.238281 12 23.238281 C 11.761719 23.238281 11.601562 23 11.601562 22.800781 L 10.878906 12.71875 C 11.679688 12.839844 12.441406 12.839844 13.121094 12.71875 Z M 12 12 C 8.921875 12 6.398438 9.480469 6.398438 6.398438 C 6.398438 3.320312 8.921875 0.800781 12 0.800781 C 15.078125 0.800781 17.601562 3.320312 17.601562 6.398438 C 17.601562 9.480469 15.078125 12 12 12 Z M 12 12"/>
    <path d="M 14.28125 4.121094 C 14.121094 3.960938 13.878906 3.960938 13.71875 4.121094 L 12 5.839844 L 10.28125 4.121094 C 10.121094 3.960938 9.878906 3.960938 9.71875 4.121094 C 9.558594 4.28125 9.558594 4.519531 9.71875 4.679688 L 11.441406 6.398438 L 9.71875 8.121094 C 9.558594 8.28125 9.558594 8.519531 9.71875 8.679688 C 9.800781 8.761719 9.878906 8.800781 10 8.800781 C 10.121094 8.800781 10.199219 8.761719 10.28125 8.679688 L 12 6.960938 L 13.71875 8.679688 C 13.800781 8.761719 13.878906 8.800781 14 8.800781 C 14.121094 8.800781 14.199219 8.761719 14.28125 8.679688 C 14.441406 8.519531 14.441406 8.28125 14.28125 8.121094 L 12.558594 6.398438 L 14.28125 4.679688 C 14.441406 4.519531 14.441406 4.28125 14.28125 4.121094 Z M 14.28125 4.121094"/>
</svg>

<svg xmlns="http://www.w3.org/2000/svg" width="32" height="32" viewBox="0 0 24 24">
    <path d="M18.398 6.398C18.398 2.878 15.52 0 12 0 8.48 0 5.602 2.879 5.602 6.398c0 2.844 1.878 5.27 4.457 6.098L10.8 22.84c.039.68.558 1.16 1.199 1.16.64 0 1.16-.48 1.2-1.16l.784-10.356c2.555-.843 4.414-3.257 4.414-6.086zm-6 16.403c0 .238-.16.437-.398.437-.238 0-.398-.238-.398-.437l-.723-10.082c.8.12 1.562.12 2.242 0zM12 12c-3.078 0-5.602-2.52-5.602-5.602C6.398 3.32 8.922.801 12 .801c3.078 0 5.602 2.52 5.602 5.597C17.602 9.48 15.078 12 12 12zm0 0"/>
    <path d="M14.281 4.121a.39.39 0 0 0-.562 0L12 5.84 10.281 4.12a.39.39 0 0 0-.562 0 .385.385 0 0 0 0 .559l1.722 1.718L9.72 8.121a.385.385 0 0 0 0 .559c.082.082.16.12.281.12.121 0 .2-.038.281-.12L12 6.96l1.719 1.72c.082.082.16.12.281.12.121 0 .2-.038.281-.12a.385.385 0 0 0 0-.559L12.56 6.398 14.28 4.68a.385.385 0 0 0 0-.559zm0 0"/>
</svg>
